assets/encircled-minus-fill.svg

<svg xmlns="http://www.w3.org/2000/svg" fill="none" viewBox="0 0 28 28">
  <path fill="#2A2238" fill-rule="evenodd" d="M14 28c7.732 0 14-6.268 14-14 0-7.73199-6.268-14-14-14C6.26801 0 0 6.26801 0 14c0 7.732 6.26801 14 14 14ZM6 13.25c-.41421 0-.75.3358-.75.75s.33579.75.75.75h15c.4142 0 .75-.3358.75-.75s-.3358-.75-.75-.75H6Z" clip-rule="evenodd"/>
</svg>

<svg width="28" height="28" viewBox="0 0 28 28" fill="none" xmlns="http://www.w3.org/2000/svg">
<path fill-rule="evenodd" clip-rule="evenodd" d="M14 28C21.732 28 28 21.732 28 14C28 6.26801 21.732 0 14 0C6.26801 0 0 6.26801 0 14C0 21.732 6.26801 28 14 28ZM6 13.25C5.58579 13.25 5.25 13.5858 5.25 14C5.25 14.4142 5.58579 14.75 6 14.75H21C21.4142 14.75 21.75 14.4142 21.75 14C21.75 13.5858 21.4142 13.25 21 13.25H6Z" fill="#2A2238"/>
</svg>
